assets/Bento box/Flat/bento_box_flat.svg

<svg width="32" height="32" viewBox="0 0 32 32" fill="none" xmlns="http://www.w3.org/2000/svg">
<path d="M28.675 17.5V17.87L16.345 10.8C16.145 10.7 15.905 9.69997 15.705 10.8L3.375 17.87V17.5H2.005V22.97C2.005 23.23 2.135 23.48 2.405 23.62L14.815 29.72C15.575 30.09 16.475 30.09 17.235 29.72L29.645 23.62C29.915 23.49 30.045 23.23 30.045 22.97V17.5H28.675Z" fill="#321B41"/>
<path d="M2.405 16.89L14.975 10.72C15.635 10.39 16.415 10.39 17.075 10.72L29.645 16.89C30.185 17.15 30.185 17.92 29.645 18.18L17.235 24.28C16.475 24.65 15.575 24.65 14.815 24.28L2.405 18.18C1.865 17.92 1.865 17.15 2.405 16.89ZM10.925 14.12C10.725 14.22 10.725 14.5 10.925 14.6L15.535 16.87C15.815 17.01 16.155 17.01 16.435 16.87L21.045 14.6C21.245 14.5 21.245 14.22 21.045 14.12L16.375 11.83C16.125 11.7 15.835 11.7 15.595 11.82L10.925 14.12ZM22.025 15.1701L11.065 20.5301C10.865 20.6301 10.865 20.9101 11.065 21.0101L15.675 23.2801C15.955 23.4201 16.295 23.4201 16.575 23.2801L27.475 17.9501C27.675 17.8501 27.675 17.5701 27.475 17.4701L22.805 15.1701C22.555 15.0501 22.265 15.0501 22.025 15.1701ZM4.57499 17.38C4.37499 17.48 4.37499 17.76 4.57499 17.86L9.18499 20.13C9.46499 20.27 9.80499 20.27 10.085 20.13L14.695 17.86C14.895 17.76 14.895 17.48 14.695 17.38L10.025 15.08C9.77499 14.96 9.48499 14.96 9.23499 15.08L4.57499 17.38Z" fill="#635994"/>
<path d="M21.335 12.76C21.335 12.72 21.335 12.67 21.325 12.63C21.245 11.58 20.405 10.74 19.365 10.67H19.325C18.675 10.64 18.075 10.31 17.675 9.8C17.285 9.31 16.695 9 16.025 9C15.355 9 14.755 9.31 14.375 9.8C13.965 10.31 13.375 10.64 12.725 10.67H12.685C11.635 10.73 10.795 11.58 10.715 12.62C10.715 12.64 10.7125 12.6625 10.71 12.685C10.7075 12.7075 10.705 12.73 10.705 12.75C10.705 13.2268 10.8174 13.6766 11.0169 14.0747C11.0202 14.0813 11.0235 14.0878 11.0268 14.0943C11.0649 14.169 11.1061 14.2417 11.1502 14.3125C11.3126 14.5733 11.5144 14.8068 11.7471 15.0048L13.0485 15.6457C13.2475 15.6878 13.4537 15.71 13.665 15.71H18.365C18.5378 15.711 18.707 15.6974 18.8715 15.6702L20.3973 14.9189C20.5889 14.7402 20.7564 14.5363 20.8949 14.3125C20.9368 14.2448 20.976 14.1752 21.0124 14.104C21.2188 13.7005 21.335 13.2435 21.335 12.76Z" fill="#44911B"/>
<path d="M17.3205 12.3197C17.1054 12.3764 16.9025 12.4622 16.715 12.57C16.295 12.82 15.765 12.82 15.345 12.57C15.32 12.555 15.2947 12.5405 15.2691 12.5264C15.0732 12.419 14.86 12.3395 14.6359 12.2924C14.4203 12.247 14.1948 12.2316 13.965 12.25C13.0988 12.3092 12.3531 12.8453 11.9919 13.5945C11.987 13.6047 11.9821 13.6149 11.9774 13.6252C11.8778 13.8394 11.8095 14.0705 11.7785 14.3125C11.7727 14.358 11.7681 14.4038 11.765 14.45C11.7507 14.648 11.7608 14.8413 11.7926 15.0272L15.535 16.87C15.815 17.01 16.155 17.01 16.435 16.87L20.2751 14.9791C20.3007 14.808 20.308 14.631 20.295 14.45C20.2918 14.4038 20.2873 14.358 20.2815 14.3125C20.2519 14.0816 20.1883 13.8606 20.0961 13.6547C19.7463 12.8741 18.9842 12.3108 18.095 12.25C17.837 12.2298 17.5892 12.2531 17.3555 12.3108C17.3438 12.3137 17.3322 12.3166 17.3205 12.3197Z" fill="#86D72F"/>
<path d="M8.53831 16.1089C8.57107 16.7492 8.8465 17.3252 9.27447 17.7468C9.72214 18.1879 10.3367 18.46 11.015 18.46C11.5113 18.46 11.9552 18.7008 12.2354 19.0711L10.085 20.13C9.80502 20.27 9.46502 20.27 9.18502 20.13L6.12631 18.6239C5.97458 18.345 5.84606 18.0518 5.74336 17.7468C5.65206 17.4757 5.58117 17.1953 5.53253 16.9074C5.48156 16.6057 5.45502 16.2959 5.45502 15.98C5.45502 15.87 5.46502 15.77 5.48502 15.67C4.61502 15.15 4.02502 14.2 4.02502 13.12V12.21C4.02502 11.54 4.56502 10.98 5.24502 10.98C5.92502 10.98 6.47502 11.53 6.47502 12.21V13.12C6.47502 13.4 6.70502 13.63 6.98502 13.63C7.26502 13.63 7.49502 13.4 7.49502 13.12V12.21C7.49502 11.54 8.05502 10.98 8.73502 10.98C9.41502 10.98 9.96502 11.53 9.96502 12.21V13.12C9.96502 13.8771 9.67507 14.5703 9.20195 15.0963C9.18999 15.1096 9.17793 15.1228 9.16574 15.1359C9.13421 15.1697 9.10191 15.2028 9.06887 15.2351C8.89914 15.4013 8.70984 15.5476 8.50502 15.67C8.50752 15.6825 8.50987 15.6951 8.51206 15.7079C8.52737 15.7973 8.53502 15.8925 8.53502 15.98C8.53502 16.0232 8.53613 16.0662 8.53831 16.1089Z" fill="#FF6723"/>
<path d="M27.475 17.4701L25.065 16.2901C19.755 14.8601 14.965 17.3101 12.205 21.5801L15.675 23.2901C15.955 23.4301 16.295 23.4301 16.575 23.2901L27.475 17.9601C27.675 17.8501 27.675 17.5701 27.475 17.4701Z" fill="#F4F4F4"/>
<path d="M20.725 16.63L20.365 17.09C20.285 17.19 20.305 17.34 20.405 17.42C20.505 17.5 20.655 17.48 20.735 17.38L21.095 16.92C21.175 16.82 21.155 16.67 21.055 16.59C20.955 16.51 20.805 16.53 20.725 16.63Z" fill="#D3D3D3"/>
<path d="M23.345 17.56L22.775 17.43C22.655 17.4 22.575 17.27 22.595 17.15C22.625 17.02 22.745 16.94 22.875 16.97L23.445 17.1C23.575 17.13 23.655 17.25 23.625 17.38C23.595 17.51 23.475 17.59 23.345 17.56Z" fill="#D3D3D3"/>
<path d="M19.805 18.45L20.385 18.54C20.515 18.56 20.605 18.68 20.585 18.81C20.565 18.94 20.445 19.03 20.315 19.01L19.735 18.92C19.605 18.9 19.515 18.78 19.535 18.65C19.555 18.52 19.675 18.43 19.805 18.45Z" fill="#D3D3D3"/>
<path d="M19.505 20.12L19.265 20.65C19.215 20.77 19.265 20.91 19.385 20.96C19.505 21.01 19.645 20.96 19.695 20.84L19.935 20.31C19.985 20.19 19.935 20.05 19.815 20C19.695 19.95 19.565 20 19.505 20.12Z" fill="#D3D3D3"/>
<path d="M17.475 21.72L16.905 21.59C16.775 21.56 16.695 21.43 16.725 21.31C16.755 21.18 16.875 21.1 17.005 21.13L17.575 21.26C17.705 21.29 17.785 21.41 17.755 21.54C17.725 21.67 17.605 21.75 17.475 21.72Z" fill="#D3D3D3"/>
<path d="M23.175 19.06L22.765 19.47C22.675 19.56 22.525 19.56 22.435 19.47C22.345 19.38 22.345 19.23 22.435 19.14L22.845 18.73C22.935 18.64 23.085 18.64 23.175 18.73C23.265 18.82 23.265 18.97 23.175 19.06Z" fill="#D3D3D3"/>
<path d="M18.085 18.1L18.495 17.69C18.585 17.6 18.585 17.45 18.495 17.36C18.405 17.27 18.255 17.27 18.165 17.36L17.755 17.77C17.665 17.86 17.665 18.01 17.755 18.1C17.845 18.19 17.995 18.19 18.085 18.1Z" fill="#D3D3D3"/>
<path d="M25.605 17.5101L26.075 17.8601C26.175 17.9401 26.195 18.0901 26.105 18.2001C26.025 18.3001 25.875 18.3201 25.775 18.2401L25.315 17.8801C25.215 17.8001 25.195 17.6501 25.275 17.5501C25.355 17.4501 25.505 17.4301 25.605 17.5101Z" fill="#D3D3D3"/>
<path d="M16.415 19.74L16.855 19.36C16.955 19.28 16.965 19.13 16.885 19.03C16.805 18.93 16.655 18.92 16.555 19L16.115 19.38C16.015 19.46 16.005 19.61 16.085 19.71C16.165 19.81 16.315 19.82 16.415 19.74Z" fill="#D3D3D3"/>
<path d="M14.365 21.46L14.145 20.92C14.095 20.81 14.145 20.67 14.275 20.61C14.395 20.56 14.535 20.62 14.585 20.74L14.805 21.28C14.855 21.4 14.795 21.54 14.675 21.59C14.555 21.64 14.415 21.58 14.365 21.46Z" fill="#D3D3D3"/>
</svg>

<svg xmlns="http://www.w3.org/2000/svg" width="32" height="32" fill="none"><path fill="#321B41" d="M28.675 17.5v.37l-12.33-7.07c-.2-.1-.44-1.1-.64 0l-12.33 7.07v-.37h-1.37v5.47c0 .26.13.51.4.65l12.41 6.1c.76.37 1.66.37 2.42 0l12.41-6.1c.27-.13.4-.39.4-.65V17.5h-1.37Z"/><path fill="#635994" d="m2.405 16.89 12.57-6.17c.66-.33 1.44-.33 2.1 0l12.57 6.17c.54.26.54 1.03 0 1.29l-12.41 6.1c-.76.37-1.66.37-2.42 0l-12.41-6.1a.716.716 0 0 1 0-1.29Zm8.52-2.77c-.2.1-.2.38 0 .48l4.61 2.27c.28.14.62.14.9 0l4.61-2.27c.2-.1.2-.38 0-.48l-4.67-2.29a.859.859 0 0 0-.78-.01l-4.67 2.3Zm11.1 1.05-10.96 5.36c-.2.1-.2.38 0 .48l4.61 2.27c.28.14.62.14.9 0l10.9-5.33c.2-.1.2-.38 0-.48l-4.67-2.3a.89.89 0 0 0-.78 0Zm-17.45 2.21c-.2.1-.2.38 0 .48l4.61 2.27c.28.14.62.14.9 0l4.61-2.27c.2-.1.2-.38 0-.48l-4.67-2.3a.912.912 0 0 0-.79 0l-4.66 2.3Z"/><path fill="#44911B" d="M21.335 12.76c0-.04 0-.09-.01-.13a2.124 2.124 0 0 0-1.96-1.96h-.04c-.65-.03-1.25-.36-1.65-.87-.39-.49-.98-.8-1.65-.8-.67 0-1.27.31-1.65.8-.41.51-1 .84-1.65.87h-.04c-1.05.06-1.89.91-1.97 1.95 0 .02-.002.043-.005.065a.616.616 0 0 0-.005.065c0 .477.112.927.312 1.325l.01.02a2.934 2.934 0 0 0 .72.91l1.302.64c.199.043.405.065.616.065h4.7c.173.001.342-.013.507-.04l1.525-.751a2.958 2.958 0 0 0 .615-.815c.207-.403.323-.86.323-1.344Z"/><path fill="#86D72F" d="M17.32 12.32a2.488 2.488 0 0 0-.605.25c-.42.25-.95.25-1.37 0a2.302 2.302 0 0 0-1.38-.32 2.384 2.384 0 0 0-2.172 2.777l3.742 1.843c.28.14.62.14.9 0l3.84-1.89a2.406 2.406 0 0 0-.179-1.325 2.385 2.385 0 0 0-2.776-1.335Z"/><path fill="#FF6723" d="M8.538 16.109c.033.64.309 1.216.736 1.638a2.472 2.472 0 0 0 1.741.713c.496 0 .94.24 1.22.611l-2.15 1.059c-.28.14-.62.14-.9 0l-3.059-1.506a5.524 5.524 0 0 1-.671-2.644c0-.11.01-.21.03-.31a2.979 2.979 0 0 1-1.46-2.55v-.91c0-.67.54-1.23 1.22-1.23.68 0 1.23.55 1.23 1.23v.91c0 .28.23.51.51.51s.51-.23.51-.51v-.91c0-.67.56-1.23 1.24-1.23.68 0 1.23.55 1.23 1.23v.91a2.95 2.95 0 0 1-.896 2.115c-.17.166-.36.313-.564.435l.007.038c.015.09.023.184.023.272l.003.129Z"/><path fill="#F4F4F4" d="m27.475 17.47-2.41-1.18c-5.31-1.43-10.1 1.02-12.86 5.29l3.47 1.71c.28.14.62.14.9 0l10.9-5.33c.2-.11.2-.39 0-.49Z"/><path fill="#D3D3D3" d="m20.725 16.63-.36.46c-.08.1-.06.25.04.33.1.08.25.06.33-.04l.36-.46c.08-.1.06-.25-.04-.33a.237.237 0 0 0-.33.04ZM23.345 17.56l-.57-.13a.253.253 0 0 1-.18-.28c.03-.13.15-.21.28-.18l.57.13c.13.03.21.15.18.28-.03.13-.15.21-.28.18ZM19.805 18.45l.58.09a.237.237 0 1 1-.07.47l-.58-.09a.237.237 0 1 1 .07-.47ZM19.505 20.12l-.24.53a.235.235 0 1 0 .43.19l.24-.53c.05-.12 0-.26-.12-.31-.12-.05-.25 0-.31.12ZM17.475 21.72l-.57-.13a.236.236 0 0 1-.18-.28c.03-.13.15-.21.28-.18l.57.13c.13.03.21.15.18.28-.03.13-.15.21-.28.18ZM23.175 19.06l-.41.41c-.09.09-.24.09-.33 0a.235.235 0 0 1 0-.33l.41-.41c.09-.09.24-.09.33 0 .09.09.09.24 0 .33ZM18.085 18.1l.41-.41c.09-.09.09-.24 0-.33a.235.235 0 0 0-.33 0l-.41.41c-.09.09-.09.24 0 .33.09.09.24.09.33 0ZM25.605 17.51l.47.35c.1.08.12.23.03.34-.08.1-.23.12-.33.04l-.46-.36a.237.237 0 0 1-.04-.33c.08-.1.23-.12.33-.04ZM16.415 19.74l.44-.38c.1-.08.11-.23.03-.33a.236.236 0 0 0-.33-.03l-.44.38c-.1.08-.11.23-.03.33s.23.11.33.03ZM14.365 21.46l-.22-.54c-.05-.11 0-.25.13-.31.12-.05.26.01.31.13l.22.54a.24.24 0 0 1-.13.31.24.24 0 0 1-.31-.13Z"/></svg>
